icons/odin.svg

<?xml version="1.0" encoding="UTF-8"?>
<svg clip-rule="evenodd" fill-rule="evenodd" stroke-linejoin="round" stroke-miterlimit="2" version="1.1" viewBox="0 0 260 260" xml:space="preserve" xmlns="http://www.w3.org/2000/svg">
    <g transform="matrix(.23131 0 0 .23131 -26.461 -156.86)" fill="#448aff">
        <path d="m430.52 1595.8c-16.576-11.38-29.677-22.4-29.677-22.4l426.29-738.35s17.547 6.508 32.041 13.457c18.27 8.757 33.403 17.294 33.403 17.294 206.63 119.3 277.54 383.92 158.24 590.55-119.3 206.64-383.92 277.54-590.55 158.24 0 0-14.473-8.32-29.74-18.79zm426.03-667.6-360.26 623.99c172.2 99.42 392.71 40.33 492.13-131.86 99.412-172.2 40.332-392.71-131.86-492.13zm-534.88 559.2c-14.487-20.98-19.644-31.04-19.644-31.04-74.475-129.36-79.937-293.86 3e-3 -432.32s225.13-215.98 374.4-216.16c0 0 20.153-0.052 36.933 1.555 25.28 2.422 42.087 5.684 42.087 5.684l-407.66 706.09s-9.671-10.01-26.112-33.81zm311.63-604.83c-108.64 13.203-209.99 75.512-268.87 177.5-58.88 101.98-62.162 220.91-19.278 321.6z" fill="#448aff"/>
    </g>
</svg>

<?xml version="1.0" encoding="UTF-8" standalone="no"?>
<!DOCTYPE svg PUBLIC "-//W3C//DTD SVG 1.1//EN" "http://www.w3.org/Graphics/SVG/1.1/DTD/svg11.dtd">
<svg width="100%" height="100%" viewBox="0 0 260 260" version="1.1" xmlns="http://www.w3.org/2000/svg" xmlns:xlink="http://www.w3.org/1999/xlink" xml:space="preserve" xmlns:serif="http://www.serif.com/" style="fill-rule:evenodd;clip-rule:evenodd;stroke-linejoin:round;stroke-miterlimit:2;">
    <g transform="matrix(0.23131,0,0,0.231311,-26.4611,-156.862)">
        <path d="M430.516,1595.76C413.94,1584.38 400.839,1573.36 400.839,1573.36L827.125,835.012C827.125,835.012 844.672,841.52 859.166,848.469C877.436,857.226 892.569,865.763 892.569,865.763C1099.2,985.063 1170.11,1249.68 1050.81,1456.31C931.507,1662.95 666.89,1733.85 460.256,1614.55C460.256,1614.55 445.783,1606.23 430.516,1595.76ZM856.543,928.162L496.282,1552.15C668.477,1651.57 888.991,1592.48 988.408,1420.29C1087.82,1248.09 1028.74,1027.58 856.543,928.162ZM321.659,1487.36C307.172,1466.38 302.015,1456.32 302.015,1456.32C227.54,1326.96 222.078,1162.46 302.018,1024C381.958,885.54 527.146,808.023 676.415,807.839C676.415,807.839 696.568,807.787 713.348,809.394C738.628,811.816 755.435,815.078 755.435,815.078L347.771,1521.17C347.771,1521.17 338.1,1511.16 321.659,1487.36ZM633.291,882.532C524.653,895.735 423.297,958.044 364.417,1060.03C305.537,1162.01 302.255,1280.94 345.139,1381.63L633.291,882.532Z" style="fill:white;"/>
    </g>
</svg>
